!!!COM: Palestrina, Giovanni Perluigi da
!!!OPR: Memor esto
!!!OTL: Credo
**kern	**kern	**kern	**kern	**kern
*Ibass	*Itenor	*Itenor	*Icalto	*Icant
!Bassus	!Tenor 2	!Tenor 1	!Altus	!Cantus
*clefF4	*clefGv2	*clefGv2	*clefG2	*clefG2
*k[b-]	*k[b-]	*k[b-]	*k[b-]	*k[b-]
*G:dor	*G:dor	*G:dor	*G:dor	*G:dor
*M4/2	*M4/2	*M4/2	*M4/2	*M4/2
=1	=1	=1	=1	=1
0d	0f#	0r	0a	0dd
=2	=2	=2	=2	=2
1G	1g	0r	1b-	1dd
1A	2e	.	2.a	1cc
.	[2a	.	.	.
.	.	.	4g	.
=3	=3	=3	=3	=3
2.d	2a]	0r	4f	2.ff
.	.	.	4d	.
.	2d	.	2a	.
4c	.	.	.	4ee
4B-	2.f	.	2.b-	4dd
4A	.	.	.	4cc
[2B-	.	.	.	[2dd
.	4e	.	8a	.
.	.	.	8g	.
=4	=4	=4	=4	=4
2B-]	2.d	1r	2f	2dd]
2F	.	.	2a	2a
.	4c	.	.	.
1G	4B-	[1d	1g	1b-
.	4A	.	.	.
.	2G	.	.	.
=5	=5	=5	=5	=5
0D	2A	1d]	2f	1a
.	2a	.	2f	.
.	1f	1d	2a	2r
.	.	.	2b-	2ff
=6	=6	=6	=6	=6
0r	1g	1c	1.cc	2ff
.	.	.	.	2ee
.	1a	2.f	.	2ff
.	.	.	2f	2cc
.	.	4e	.	.
=7	=7	=7	=7	=7
0r	2.f	4d	0a	2.dd
.	.	4c#	.	.
.	.	1d	.	.
.	4e	.	.	4ee
.	2d	.	.	2ff
.	2c#	2A	.	[2ee
=8	=8	=8	=8	=8
0r	1d	1B-	2.f	4ee]
.	.	.	.	4dd
.	.	.	.	1dd
.	.	.	4g	.
.	1e	1A	1a	.
.	.	.	.	2cc#
=9	=9	=9	=9	=9
2r	2d	2d	1f	1dd
1B-	1f	1d	.	.
.	.	.	1r	1r
2A	2f	2c	.	.
=10	=10	=10	=10	=10
2G	2e-	2B-	0r	0r
2F#	2d	2A	.	.
1G	2e-	1B-	.	.
.	[2d	.	.	.
=11	=11	=11	=11	=11
2F	2d]	2A	0r	1r
2E-	2c	2G	.	.
1D	2.d	2A	.	[1ff
.	.	[2d	.	.
.	4c	.	.	.
=12	=12	=12	=12	=12
0r	4B-	2d]	1.b-	2ff]
.	4A	.	.	.
.	2G	2e	.	2ee
.	1F	1f	.	2dd
.	.	.	2a	2cc
=13	=13	=13	=13	=13
0r	0r	1B-	2g	2.dd
.	.	.	2f	.
.	.	.	.	4cc
.	.	2e-	2g	4b-
.	.	.	.	4g
.	.	2c	[2g	[2cc
=14	=14	=14	=14	=14
0r	0r	1e-	4g]	4cc]
.	.	.	4g	4b-
.	.	.	1g	4b-
.	.	.	.	8a
.	.	.	.	8g
.	.	1d	.	2a
.	.	.	2f#	2a
=15	=15	=15	=15	=15
2.G	2.d	0r	1g	0b
4G	4d	.	.	.
2G	2d	.	2.g	.
2G	2d	.	.	.
.	.	.	4g	.
=16	=16	=16	=16	=16
2.c	2.e	0r	2g	0r
.	.	.	2g	.
4c	4e	.	.	.
2c	2e	.	2.a	.
[2d	[2f#	.	.	.
.	.	.	4a	.
=17	=17	=17	=17	=17
2d]	2f#]	0r	2a	2.dd
2G	2.g	.	1b-	.
.	.	.	.	4dd
1d	.	.	.	2dd
.	8f#	.	.	.
.	8e	.	.	.
.	2f#	.	2a	2dd
=18	=18	=18	=18	=18
1c	1g	2r	[0cc	2.ee
.	.	1c	.	.
.	.	.	.	4ee
1r	2g	.	.	2ee
.	[2a	2F	.	[2ff
=19	=19	=19	=19	=19
0r	2a]	1c	1cc]	2ff]
.	2g	.	.	2ee
.	1f	1d	[1a	1dd
=20	=20	=20	=20	=20
2r	1e	2A	1a]	0cc#
2.A	.	2.e	.	.
.	1r	.	2r	.
4A	.	4e	.	.
2A	.	2e	[2a	.
=21	=21	=21	=21	=21
1d	1r	1f#	4a]	2r
.	.	.	4a	.
.	.	.	2a	2.dd
1G	2r	2.g	1b	.
.	.	.	.	4dd
.	[2g	.	.	2dd
.	.	4f	.	.
=22	=22	=22	=22	=22
1c	4g]	4e	2cc	2ee
.	4g	4d	.	.
.	2g	4c	2cc	2ee
.	.	4B-	.	.
2F	2f	2A	4cc	2ff
.	.	.	4b-	.
[2F	2f	[2c	4a	2cc
.	.	.	4g	.
=23	=23	=23	=23	=23
2F]	2f	2c]	2a	1.dd
2G	2d	2B-	1g	.
1D	2.d	2A	.	.
.	.	2A	2f#	2dd
.	4d	.	.	.
=24	=24	=24	=24	=24
2r	2B-	1G	2g	0dd
2G	2.d	.	2b-	.
2G	.	2r	2b-	.
.	4c	.	.	.
[2G	4B-	2d	[2b-	.
.	4A	.	.	.
=25	=25	=25	=25	=25
2G]	2G	2d	2b-]	0r
2F	2A	1d	2a	.
1E-	2B-	.	[1g	.
.	2c	2c	.	.
=26	=26	=26	=26	=26
0D	2.d	2B-	2g]	2r
.	.	4A	2f	2dd
.	4e	4G	.	.
.	1f	2.A	2r	2dd
.	.	.	2a	[2dd
.	.	4G	.	.
=27	=27	=27	=27	=27
0r	1f	1F	2a	4dd]
.	.	.	.	4cc
.	.	.	2.a	2cc
.	2r	1G	.	2.b-
.	.	.	4g	.
.	2d	.	2g	.
.	.	.	.	4b-
=28	=28	=28	=28	=28
0r	2d	1r	2.f	0a
.	2.d	.	.	.
.	.	.	4f	.
.	.	1A	2e	.
.	4c	.	.	.
.	2c	.	2a	.
=29	=29	=29	=29	=29
2r	2.B-	1d	2a	0r
2d	.	.	2g	.
.	4B-	.	.	.
2d	1A	1e	1a	.
2c#	.	.	.	.
=30	=30	=30	=30	=30
1d	2r	1f	[0a	1dd
.	2d	.	.	.
1A	2d	1e	.	2ee
.	2c#	.	.	2ee
=31	=31	=31	=31	=31
0r	1d	2r	1a]	1ff
.	.	2d	.	.
.	2A	2d	2r	1ee
.	2A	2c#	2a	.
=32	=32	=32	=32	=32
1r	2f	2d	2a	2r
.	2f	2d	2b-	2dd
2r	2.e	1A	2.a	2dd
2A	.	.	.	2cc#
.	4e	.	4a	.
=33	=33	=33	=33	=33
2B-	1d	0r	2f	2dd
2G	.	.	1g	2dd
2.d	2r	.	.	1a
.	[2d	.	2f#	.
4d	.	.	.	.
=34	=34	=34	=34	=34
1G	2d]	2r	1g	2.b-
.	2e-	1g	.	.
.	.	.	.	4cc
1r	1d	.	1a	2dd
.	.	2f#	.	[2dd
=35	=35	=35	=35	=35
2r	2.G	1g	1.b-	2dd]
1G	.	.	.	2ee-
.	4A	.	.	.
.	4B-	2G	.	1dd
.	4c	.	.	.
2F#	4d	2A	2a	.
.	8c	.	.	.
.	8d	.	.	.
=36	=36	=36	=36	=36
1G	2e-	2.B-	2g	2b-
.	2d	.	1b-	2g
.	.	4c	.	.
2D	2d	1d	.	2g
2D	[2d	.	[2a	2f#
=37	=37	=37	=37	=37
2E-	2d]	1G	4a]	1g
.	.	.	4g	.
2E-	2c	.	1g	.
1D	1d	1A	.	[1dd
.	.	.	2f#	.
=38	=38	=38	=38	=38
2G	1d	2B-	2.g	0dd]
1G	.	1B-	.	.
.	.	.	8f	.
.	.	.	8e	.
.	2r	.	1d	.
2F#	[2d	2A	.	.
=39	=39	=39	=39	=39
2G	2d]	2B-	0r	0r
2A	2c	2A	.	.
[1B-	2d	1G	.	.
.	2e	.	.	.
=40	=40	=40	=40	=40
1B-]	2f	2d	1r	2r
.	8d	1f	.	1dd
.	8e	.	.	.
.	8f	.	.	.
.	8g	.	.	.
1A	1a	.	2r	.
.	.	2e	[2a	2cc
=41	=41	=41	=41	=41
0r	0r	2f	2a]	2dd
.	.	2e	2g	2ee
.	.	1d	2a	1ff
.	.	.	2b-	.
=42	=42	=42	=42	=42
2r	1r	4A	2.cc	2.ee
.	.	4B-	.	.
1A	.	4c	.	.
.	.	4d	4b-	4dd
.	2r	2e	1a	4cc
.	.	.	.	4b-
2F	[2d	4f	.	2a
.	.	4e	.	.
=43	=43	=43	=43	=43
2G	2d]	4d	2g	4b-
.	.	4e	.	4g
2A	2c	2f	1f	2cc
2B-	2d	1g	.	2b-
2c	2e	.	[2e	4a
.	.	.	.	4g
=44	=44	=44	=44	=44
1d	2f	2r	4e]	2b-
.	.	.	4d	.
.	2f	1a	1d	2a
1A	1e	.	.	2r
.	.	2e	2c#	[2a
=45	=45	=45	=45	=45
0r	1d	4f	2r	2a]
.	.	4e	.	.
.	.	4d	1d	2f
.	.	4c	.	.
.	1r	2B-	.	2g
.	.	2A	2c	2a
=46	=46	=46	=46	=46
1r	2r	4G	2d	1b-
.	.	4A	.	.
.	2G	4B-	2e	.
.	.	4c	.	.
[1D	2F	[1d	[1f	2.a
.	[2A	.	.	.
.	.	.	.	4g
=47	=47	=47	=47	=47
2D]	4A]	1d]	2f]	2f
.	4A	.	.	.
2BB-	2B-	.	4e-	1g
.	.	.	4d	.
2C	2A	2r	2e-	.
2D	2A	2d	2d	2f#
=48	=48	=48	=48	=48
1E-	0G	2B-	2r	[0g
.	.	2.e-	2B-	.
2C	.	.	4c	.
.	.	4d	4d	.
2C	.	[2c	4e-	.
.	.	.	4c	.
=49	=49	=49	=49	=49
[0G	2r	2c]	1d	1g]
.	2d	4B	.	.
.	.	4A	.	.
.	1d	2.B	1g	2r
.	.	.	.	2dd
.	.	4c	.	.
=50	=50	=50	=50	=50
1G]	1B-	1d	1r	1dd
1r	1e-	1r	2r	2b-
.	.	.	2g	2b-
=51	=51	=51	=51	=51
0r	2c	1r	1g	4cc
.	.	.	.	4b-
.	2e-	.	.	4b-
.	.	.	.	8a
.	.	.	.	8g
.	1d	2r	1f	2a
.	.	2d	.	2a
=52	=52	=52	=52	=52
2r	1G	1d	1b-	4g
.	.	.	.	4a
2G	.	.	.	4b-
.	.	.	.	4cc
1G	1r	1B-	2g	2dd
.	.	.	2b-	2b-
=53	=53	=53	=53	=53
1F	1r	1f	1a	2cc
.	.	.	.	2cc
1B-	2r	2d	2f	1dd
.	2d	2f	[2b-	.
=54	=54	=54	=54	=54
2G	1d	4g	2b-]	1dd
.	.	4f	.	.
2B-	.	4e	2g	.
.	.	4d	.	.
1A	1c	1e	1a	2r
.	.	.	.	[2a
=55	=55	=55	=55	=55
0D	1f	0d	2f	2a]
.	.	.	2d	2.ff
.	2d	.	[1a	.
.	.	.	.	4ee
.	2f	.	.	[2dd
=56	=56	=56	=56	=56
1r	1e	1A	1a]	2dd]
.	.	.	.	2cc#
1D	[1d	1A	1f	1dd
=57	=57	=57	=57	=57
1D	1d]	1F	1a	2r
.	.	.	.	2dd
1BB-	2r	1f	2b-	1dd
.	2d	.	[2B-	.
=58	=58	=58	=58	=58
0B-	1d	2.f	4B-]	2b-
.	.	.	4c	.
.	.	.	4d	2.ff
.	.	4e	4e	.
.	2B-	4d	2.f	.
.	.	4c	.	4ee
.	[2f	2B-	.	2dd
.	.	.	4g	.
=59	=59	=59	=59	=59
0F	4f]	2A	2a	2cc
.	4e	.	.	.
.	2d	2B-	2f	1b-
.	1c	1c	1f	.
.	.	.	.	2a
=60	=60	=60	=60	=60
1BB-	1B-	1d	1f	1b-
1r	[1d	1r	1r	1r
=61	=61	=61	=61	=61
1D	1d]	1f#	2r	1a
.	.	.	2d	.
2D	2d	2f#	2a	2dd
2D	2d	2f#	2a	2dd
=62	=62	=62	=62	=62
1G	1d	1g	1b	1dd
1C	1c	1g	1cc	1ee
=63	=63	=63	=63	=63
1F	1c	1f	1a	1.ff
1F	1A	1a	1f	.
.	.	.	.	2cc
=64	=64	=64	=64	=64
1.D	1.d	2.a	2.f	2.ff
.	.	4g	4g	4ee
.	.	2f	2a	2dd
2A	2e	[2e	2a	2cc#
=65	=65	=65	=65	=65
1D	1f	2e]	1a	1dd
.	.	1d	.	.
1A	1e	.	1a	1ee
.	.	2c#	.	.
=66	=66	=66	=66	=66
0D	2d	2d	2a	2ff
.	1a	1d	1f	1dd
.	2a	2d	2f	2dd
=67	=67	=67	=67	=67
0r	1g	1B-	1d	1dd
.	1a	1A	1e	1cc
=68	=68	=68	=68	=68
0r	1d	1G	1g	1b
.	1e	1c	1g	1cc
=69	=69	=69	=69	=69
1r	1f	1F	1cc	1a
1F	1c	1A	1cc	2.ff
.	.	.	.	4ee
=70	=70	=70	=70	=70
1BB-	1f	1B-	1b-	4dd
.	.	.	.	4cc
.	.	.	.	2dd
1F	1f	2c	1a	2cc
.	.	[2d	.	2a
=71	=71	=71	=71	=71
0G	0d	4d]	2g	4b-
.	.	4c	.	4a
.	.	4B-	2.b-	4g
.	.	4A	.	4f#
.	.	1B-	.	1g
.	.	.	4a	.
.	.	.	[2g	.
=72	=72	=72	=72	=72
0D	0d	0A	2g]	0a
.	.	.	4f#	.
.	.	.	4e	.
.	.	.	1f#	.
=73	=73	=73	=73	=73
0G	0d	0G	0g	0b
*	*	*	*	*-
!! Crucifixus
*Itenor	*Itenor	*Icalto	*Icant
!Tenor 2	!Tenor 1	!Altus	!Cantus
*clefGv2	*clefGv2	*clefG2	*clefG2
*k[b-]	*k[b-]	*k[b-]	*k[b-]
*G:dor	*G:dor	*G:dor	*G:dor
*M4/2	*M4/2	*M4/2	*M4/2
=74	=74	=74	=74
1.G	1.g	1.b-	1.dd
2G	2g	2b-	2dd
=75	=75	=75	=75
1d	1f	1a	1dd
1A	1e	1a	1cc
=76	=76	=76	=76
2.a	1.d	2r	2.ff
.	.	1a	.
4g	.	.	4ee
2f	.	.	2dd
2e	2e	2g	2cc
=77	=77	=77	=77
2d	2f#	2a	2dd
2d	2f#	2a	2a
1G	2g	1g	1b-
.	[2d	.	.
=78	=78	=78	=78
1d	2d]	2f	2.a
.	2f	2a	.
.	.	.	4b-
1r	2f	2a	1cc
.	2e	2g	.
=79	=79	=79	=79
1r	2d	2f	1r
.	2c	2e	.
1a	1d	4f	2r
.	.	4g	.
.	.	4a	2ff
.	.	4b-	.
=80	=80	=80	=80
2a	1c	2.cc	2ff
2g	.	.	2ee
.	.	4b-	.
2f	1r	4a	2dd
.	.	4f	.
2e	.	2g	2cc
=81	=81	=81	=81
2d	2r	2a	1dd
2d	1f	1d	.
1r	.	.	[1a
.	2e	2c#	.
=82	=82	=82	=82
1r	2d	2d	1a]
.	2c#	2e	.
2r	1d	2.f	2r
[2f	.	.	[2dd
.	.	4g	.
=83	=83	=83	=83
2f]	1A	0a	2dd]
2e	.	.	2cc#
2d	2f	.	2dd
2c#	2e	.	2ee
=84	=84	=84	=84
1d	4d	0a	2ff
.	4e	.	.
.	4f	.	2.dd
.	4d	.	.
1A	2e	.	.
.	.	.	4cc#
.	2e	.	2cc#
=85	=85	=85	=85
1d	1f#	1a	1dd
2r	2r	2r	2r
2G	2g	2b-	2dd
=86	=86	=86	=86
2d	2f	2a	2dd
2g	2g	2b-	2dd
1f	1a	1cc	1ff
=87	=87	=87	=87
2c	2g	2cc	2ee
2.d	2.f	2.a	2.dd
4d	4f	4a	4dd
2B-	2d	2g	2dd
=88	=88	=88	=88
1A	1e	1a	1cc
1G	2g	2d	2b
.	2g	2g	2b
=89	=89	=89	=89
0r	2f	2a	2cc
.	2d	2.b-	2dd
.	1e-	.	4g
.	.	4a	4a
.	.	2g	4b-
.	.	.	4cc
=90	=90	=90	=90
0r	1d	2.f	4dd
.	.	.	4ee
.	.	.	2.ff
.	.	4g	.
.	4d	2a	.
.	4c	.	4ee
.	4B-	[2b-	4dd
.	4A	.	4cc
=91	=91	=91	=91
2r	1G	4b-]	4dd
.	.	4a	4cc
2B-	.	2.g	2b-
2c	1r	.	1a
.	.	8f	.
.	.	8e	.
2d	.	4f	.
.	.	8g	.
.	.	8a	.
=92	=92	=92	=92
4G	1r	0b-	0dd
4A	.	.	.
4B-	.	.	.
4c	.	.	.
4d	1B-	.	.
4e	.	.	.
4f	.	.	.
4d	.	.	.
=93	=93	=93	=93
2e	2c	1a	0r
2f	2d	.	.
4e	2G	4g	.
4d	.	4f	.
[2d	2B-	4e	.
.	.	4d	.
=94	=94	=94	=94
2d]	1A	2e	2r
2c#	.	2a	2ee
1d	1r	2a	2ff
.	.	2b-	2dd
=95	=95	=95	=95
0r	0r	2cc	2ee
.	.	2a	2ff
.	.	4g	2.gg
.	.	8a	.
.	.	8b-	.
.	.	[2cc	.
.	.	.	4ff
=96	=96	=96	=96
2r	2r	4cc]	4ee
.	.	4b-	4dd
2A	2e	1a	1cc
2A	2f	.	.
2B-	2d	4g	4b-
.	.	4f	4a
=97	=97	=97	=97
2c	2e	4e	2g
.	.	4d	.
2A	2f	2c	2a
1G	1g	1d	1b-
=98	=98	=98	=98
1d	1f#	1r	2a
.	.	.	1a
1d	1r	1f#	.
.	.	.	2b-
=99	=99	=99	=99
2e	0r	2g	2cc
2f	.	2a	2.dd
2.g	.	2.b-	.
.	.	.	4cc
.	.	.	2b-
4f	.	4a	.
=100	=100	=100	=100
2e	0r	2g	1cc
2.f	.	2.a	.
.	.	.	1a
4e	.	4g	.
4d	.	4f	.
4c	.	4e	.
=101	=101	=101	=101
1B-	1d	2.f	2r
.	.	.	2dd
.	.	4g	.
1A	2e	1a	2cc
.	2f	.	2a
=102	=102	=102	=102
1G	2.g	2d	2b-
.	.	1g	2b-
.	4f	.	.
1r	2e	.	1cc
.	[2f	2a	.
=103	=103	=103	=103
0r	4f]	2a	2.ff
.	4e	.	.
.	4d	2.b-	.
.	4c	.	4ee
.	1B-	.	4dd
.	.	4a	4cc
.	.	[2g	4dd
.	.	.	4b-
=104	=104	=104	=104
1r	1A	2g]	1cc
.	.	2f#	.
2r	1G	2g	2b-
2G	.	2d	2b-
=105	=105	=105	=105
2.d	0r	2.f	2.a
4d	.	4f	4a
2d	.	2f	2b-
2e	.	2g	2cc
=106	=106	=106	=106
2f	2r	2a	2dd
1g	2G	2b-	2dd
.	2.d	[1a	1dd
[2f	.	.	.
.	4d	.	.
=107	=107	=107	=107
4f]	2d	1a]	1r
8e	.	.	.
8d	.	.	.
2c	2e	.	.
1d	2f#	2r	1a
.	2f#	2a	.
=108	=108	=108	=108
1G	1g	2.b-	2.dd
.	.	4b-	4dd
1r	1G	2b-	2dd
.	.	2g	2ee
=109	=109	=109	=109
0r	2.d	1a	2ff
.	.	.	1ff
.	4d	.	.
.	2d	1b-	.
.	2e	.	4ee
.	.	.	4dd
=110	=110	=110	=110
1r	1f	2a	2.cc
.	.	1cc	.
.	.	.	4dd
2r	1g	.	2ee-
2G	.	[2b-	[2dd
=111	=111	=111	=111
2.d	1f	2b-]	4dd]
.	.	.	4cc
.	.	2.a	2a
4d	.	.	.
2d	1r	.	1b-
.	.	8g	.
.	.	8f	.
2e	.	2g	.
=112	=112	=112	=112
1f	2r	1a	2a
.	2d	.	2ff
1g	2B-	1r	2dd
.	2c	.	2ee
=113	=113	=113	=113
1f	4d	1r	4ff
.	4c	.	4ee
.	4B-	.	4dd
.	4A	.	4cc
1r	2G	2r	2b-
.	2A	2a	2cc
=114	=114	=114	=114
1r	2.B-	2f	2.dd
.	.	2g	.
.	8A	.	4ee
.	8G	.	.
2r	1d	4a	2ff
.	.	4g	.
2d	.	4f	[2dd
.	.	4e	.
=115	=115	=115	=115
2B-	0r	2d	2dd]
2c	.	2e	4cc
.	.	.	4b-
4d	.	1f	2a
4c	.	.	.
4B-	.	.	[2dd
4A	.	.	.
=116	=116	=116	=116
2G	1r	1e	2dd]
2A	.	.	2cc#
2B-	2r	2d	2dd
[2G	[2d	[2g	[2b-
=117	=117	=117	=117
2G]	2d]	2g]	2b-]
2d	2d	2f	2a
1c	1e	2.g	1cc
.	.	4a	.
=118	=118	=118	=118
2.B-	2f	1b-	0dd
.	1g	.	.
4c	.	.	.
1d	.	1a	.
.	[2f	.	.
=119	=119	=119	=119
1c	2f]	1cc	2r
.	2e	.	1gg
1r	2.d	2b-	.
.	.	2a	[2ff
.	4c	.	.
=120	=120	=120	=120
0r	2B-	2.g	2ff]
.	2c	.	2ee
.	.	4a	.
.	2G	2b-	2.dd
.	2d	[2a	.
.	.	.	4cc
=121	=121	=121	=121
0r	2e-	4a]	2b-
.	.	4g	.
.	2c	1g	2cc
.	1d	.	1a
.	.	2f#	.
=122	=122	=122	=122
2r	1G	2g	1g
1g	.	1b-	.
.	1r	.	1dd
[2f	.	[2a	.
=123	=123	=123	=123
2f]	2r	2a]	1cc
2e	1g	2g	.
2.d	.	2b-	2dd
.	[2f	[2a	[2dd
4c	.	.	.
=124	=124	=124	=124
2B-	2f]	2a]	2dd]
2c	2e	1g	4cc
.	.	.	4b
1A	1c	.	1cc
.	.	2f#	.
=125	=125	=125	=125
0G	0d	0g	0b
*-	*-	*-	*-
!! Et in Spiritum
**kern	**kern	**kern	**kern	**kern
*Ibass	*Itenor	*Itenor	*Icalto	*Icant
!Bassus	!Tenor 2	!Tenor 1	!Altus	!Cantus
*clefF4	*clefGv2	*clefGv2	*clefG2	*clefG2
*k[b-]	*k[b-]	*k[b-]	*k[b-]	*k[b-]
*G:dor	*G:dor	*G:dor	*G:dor	*G:dor
*M4/2	*M4/2	*M4/2	*M4/2	*M4/2
=126	=126	=126	=126	=126
1D	1A	1d	1f#	0r
2D	2A	2d	2f#	.
[2G	[2B-	[2d	[2g	.
=127	=127	=127	=127	=127
4G]	4B-]	4d]	4g]	0r
4G	4B-	4d	4g	.
2G	2B-	2d	2g	.
1F	1c	1f	1a	.
=128	=128	=128	=128	=128
2D	2d	2f	2b-	0r
1F	1c	1f	1a	.
2G	2B-	2d	2g	.
=129	=129	=129	=129	=129
2D	2A	2d	2f	0r
2D	2f	2d	2a	.
2C#	2e	2e	2a	.
4D	[2d	[2f	[2a	.
4E	.	.	.	.
=130	=130	=130	=130	=130
4F	2d]	2f]	2a]	0r
4G	.	.	.	.
2A	2c#	2e	2a	.
2D	1d	2.f	1a	.
[2d	.	.	.	.
.	.	4d	.	.
=131	=131	=131	=131	=131
2d]	1A	1e	1a	1r
2c#	.	.	.	.
2d	2r	2f#	2r	1a
2D	2d	2f#	2a	.
=132	=132	=132	=132	=132
2G	2d	2g	2d	2b
1C	1c	1e	1g	1cc
2C	2c	2e	2g	2cc
=133	=133	=133	=133	=133
2.F	2.A	2.f	2.c	2.cc
4F	4A	4f	4c	4cc
1BB-	1B-	1d	1f	1dd
=134	=134	=134	=134	=134
0r	2A	2e	0r	2cc
.	2G	2g	.	2b-
.	1d	1f#	.	1a
=135	=135	=135	=135	=135
1.G	1d	2g	2r	1g
.	.	1d	1b-	.
.	2G	.	.	1r
2F#	2A	2d	2a	.
=136	=136	=136	=136	=136
1G	1B-	1d	1g	0r
2D	2B-	2d	2g	.
2D	2A	2d	2f	.
=137	=137	=137	=137	=137
2.E-	2.G	2B-	2.g	1r
.	.	2c	.	.
4E-	4G	.	4g	.
1D	1A	2d	2f	2r
.	.	[2d	[2a	[2ff
=138	=138	=138	=138	=138
0r	2d	2d]	2a]	2ff]
.	2e	2c#	2a	1ee
.	[1f	1d	1a	.
.	.	.	.	[2dd
=139	=139	=139	=139	=139
0r	2f]	1A	1a	2dd]
.	2e	.	.	2cc#
.	1d	1B-	2f	1dd
.	.	.	2g	.
=140	=140	=140	=140	=140
2r	2e	2A	1a	2cc#
2d	2f	2a	.	2dd
2d	2f	2.a	2r	2dd
2c#	2e	.	2a	2ee
.	.	4g	.	.
=141	=141	=141	=141	=141
1d	4d	4f	1.a	1ff
.	4e	4e	.	.
.	4f	1d	.	.
.	4g	.	.	.
1A	2a	.	.	2ff
.	2A	2c#	2a	[2ee
=142	=142	=142	=142	=142
1B-	2d	2d	2f	4ee]
.	.	.	.	4dd
.	2G	2d	2g	1dd
1A	2r	1e	1a	.
.	2A	.	.	2cc#
=143	=143	=143	=143	=143
2r	1B-	1d	2f	1dd
1G	.	.	1b-	.
.	2.d	2r	.	2g
2F#	.	[2d	2a	2a
.	4c	.	.	.
=144	=144	=144	=144	=144
2G	4B-	2d]	2g	2.b-
.	4A	.	.	.
2G	2G	2d	2g	.
.	.	.	.	4cc
1D	2A	2d	2f	1dd
.	2F	2d	2a	.
=145	=145	=145	=145	=145
1E-	2.G	1B-	2g	2r
.	.	.	2.b-	1g
.	4A	.	.	.
1E-	2B-	2G	.	.
.	.	.	4a	.
.	2c	2G	[2g	2g
=146	=146	=146	=146	=146
0D	0d	2B-	2g]	0dd
.	.	4A	4f#	.
.	.	4G	4e	.
.	.	1A	1f#	.
=147	=147	=147	=147	=147
1G	1d	2G	2g	2b-
.	.	2g	2b-	2dd
1r	1r	2f	2a	2dd
.	.	2e	2g	2ee
=148	=148	=148	=148	=148
0r	0r	1d	1a	1ff
.	.	2c	2a	2ee
.	.	2B-	2b-	2dd
=149	=149	=149	=149	=149
1r	1r	2f	2a	2cc
.	.	2g	2g	2b-
2r	2r	1d	2f	2a
2D	2d	.	2f	2a
=150	=150	=150	=150	=150
2D	2d	0r	2f	2b-
2C#	2e	.	2e	2a
2.D	2.f	.	2.d	2.a
4D	4f	.	4d	4a
=151	=151	=151	=151	=151
2A	2e	0r	2c	2a
2D	2d	.	2f	2a
4A	2c	.	2e	2a
8B-	.	.	.	.
8c	.	.	.	.
[2d	2B-	.	2d	2g
=152	=152	=152	=152	=152
2d]	1A	1r	1e	1a
2c#	.	.	.	.
2d	1f#	2r	1a	2r
2D	.	2d	.	2dd
=153	=153	=153	=153	=153
2.G	2.g	2.B-	2.b-	2.dd
4G	4g	4B-	4b-	4dd
2G	2g	2B-	2b-	2dd
2A	2e	2c	2a	2cc
=154	=154	=154	=154	=154
2B-	2d	2d	2.f	2b-
2B-	2d	2B-	.	2dd
.	.	.	4g	.
1F	1f	1c	2a	1cc
.	.	.	2a	.
=155	=155	=155	=155	=155
2BB-	1f	1d	2.b-	2b-
1B-	.	.	.	1dd
.	.	.	4a	.
.	1r	1r	4f	.
.	.	.	4g	.
2A	.	.	2a	2cc
=156	=156	=156	=156	=156
2B-	1r	1r	1g	2dd
2c	.	.	.	2ee
2.d	2r	2r	1f	2.ff
.	[2a	[2f	.	.
8c	.	.	.	8ee
8B-	.	.	.	8dd
=157	=157	=157	=157	=157
4A	2a]	2f]	0r	1cc
4B-	.	.	.	.
2c	2g	2e	.	.
2F	2a	2f	.	1cc
2c	2e	2g	.	.
=158	=158	=158	=158	=158
0F	2f	2a	0r	1cc
.	2c	2a	.	.
.	4d	2f	.	1a
.	4c	.	.	.
.	[2c	2f	.	.
=159	=159	=159	=159	=159
1G	2c]	1d	1r	1g
.	2B	.	.	.
1C	1c	1e	2r	1g
.	.	.	[2g	.
=160	=160	=160	=160	=160
2r	1A	1c	2g]	0r
1c	.	.	2f#	.
.	1G	1d	[1g	.
2B	.	.	.	.
=161	=161	=161	=161	=161
1c	1g	1e	2g]	1r
.	.	.	1c	.
1F	1a	1f	.	2r
.	.	.	2f	[2cc
=162	=162	=162	=162	=162
2.G	1g	0r	2d	2cc]
.	.	.	2e	2b
4G	.	.	.	.
2A	1c	.	2e	1cc
2A	.	.	[2f	.
=163	=163	=163	=163	=163
2B-	2d	1r	4f]	1f
.	.	.	4e	.
2B-	2d	.	4d	.
.	.	.	4c	.
2G	2e-	2r	1B-	2.g
2G	2d	[2g	.	.
.	.	.	.	4g
=164	=164	=164	=164	=164
1D	1d	2g]	1A	2a
.	.	2f#	.	2a
1G	2d	1g	1r	1b-
.	[2g	.	.	.
=165	=165	=165	=165	=165
0r	2g]	1d	2.a	2a
.	2f#	.	.	2.dd
.	.	.	4a	.
.	1g	2.G	2b	.
.	.	.	.	4dd
.	.	.	2b	2ee
.	.	4G	.	.
=166	=166	=166	=166	=166
0r	1c	2A	4cc	2ee
.	.	.	4b-	.
.	.	2A	4a	1ff
.	.	.	4g	.
.	2.d	1B-	2f	.
.	.	.	2g	[2dd
.	4d	.	.	.
=167	=167	=167	=167	=167
0r	2e	1A	1a	2dd]
.	2f	.	.	1cc
.	2e	2c	2.g	.
.	2d	2G	.	2b-
.	.	.	4f	.
=168	=168	=168	=168	=168
1r	2c	1A	2e	1a
.	2.d	.	2f	.
2r	.	1A	1e	2a
.	4c	.	.	.
2A	2c	.	.	2a
=169	=169	=169	=169	=169
1B-	2.f	2r	1d	1dd
.	.	2d	.	.
.	4e	.	.	.
2B-	2d	1f	1r	2dd
2A	[2a	.	.	2cc
=170	=170	=170	=170	=170
2F	2a]	2f	0r	2a
2G	4g	2e	.	2b-
.	4f	.	.	.
2A	2e	2c	.	2a
2B-	2d	2d	.	2g
=171	=171	=171	=171	=171
2c	1r	2e	2r	1a
2d	.	2f	2a	.
1G	2r	[1g	1b-	1r
.	2d	.	.	.
=172	=172	=172	=172	=172
0r	1e-	1g]	2.b-	2r
.	.	.	.	2g
.	.	.	4a	.
.	2e-	1r	2g	1b-
.	2d	.	2f	.
=173	=173	=173	=173	=173
0r	2B-	0r	2g	2b-
.	2c	.	1a	2a
.	2d	.	.	2f
.	2e-	.	2g	2g
=174	=174	=174	=174	=174
1r	0d	0r	2f#	2a
.	.	.	1g	2b-
1D	.	.	.	2a
.	.	.	2f#	2a
=175	=175	=175	=175	=175
1E-	2.B-	1G	1g	2g
.	.	.	.	2.b-
.	4G	.	.	.
2E-	2g	1B-	2r	.
.	.	.	.	4cc
2D	4f	.	4d	[2dd
.	4e	.	4e	.
=176	=176	=176	=176	=176
2BB-	2d	2B-	4f	2dd]
.	.	.	4g	.
2C	2e	2A	1a	4cc
.	.	.	.	4b-
2D	2f	2F	.	4a
.	.	.	.	4b-
2E-	2c	2G	2g	2cc
=177	=177	=177	=177	=177
0D	2r	2A	2f#	[0dd
.	2.d	2B-	1g	.
.	.	2A	.	.
.	4c	.	.	.
.	2A	[2d	2f#	.
=178	=178	=178	=178	=178
1G	1B	2d]	[0g	1dd]
.	.	1G	.	.
1C	1c	.	.	1ee-
.	.	[2c	.	.
=179	=179	=179	=179	=179
[0G	[0d	2c]	1g_	[0dd
.	.	4B	.	.
.	.	4A	.	.
.	.	1B	1g_	.
=180	=180	=180	=180	=180
0G]	0d]	0B	0g]	0dd]
==	==	==	==	==
*-	*-	*-	*-	*-
!!!CDT: 1525/^1526/-1594/2/2
!!!OCY: Italia
!!!AGN: Mass (Parody)
!!!AST: renaissance, vocal
!!!ASW: Motet 1572 (Palestrina)
!!!PWK: Masses, Book 8
!!!RNB: Cadence finals: A,D
!!!YOR: Le Opere Complete, v. 24, p. 86
!!!YOO: Rome, Italy: Fratelli Scalera
!!!END: 1992//
!!!EED: John Miller
!!!YEC: Copyright 2000, John Miller
!!!YEN: United States of America
!!!YEM: Rights to all derivative electronic formats reserved.
!!!YEM: Refer to licensing agreement for further details.
!!!YEM: This file must be accompanied by the licensing agreement.
!!!YEM: A copy of the licensing agreement may be found at http://www.music-cog.ohio-state.edu/HumdrumDatabases/Palestrina/license.txt
!!!EMD: converted to Humdrum by Bret Aarden
